assets/imagenes/cel.svg

<svg width="49" height="51" viewBox="0 0 49 51" fill="none" xmlns="http://www.w3.org/2000/svg">
<path d="M24.5038 1.12402C11.5975 1.12402 1.14148 11.4184 1.14148 24.1253C1.14148 31.6851 4.84749 38.3907 10.5701 42.5863C8.69809 45.9129 5.98136 49.1945 2.37428 49.8838C2.37428 49.8838 11.2778 49.5916 19.078 46.4973C20.8206 46.9019 22.6318 47.1267 24.5038 47.1267C37.4025 47.1267 47.8661 36.8323 47.8661 24.1253C47.8585 11.4184 37.4025 1.12402 24.5038 1.12402Z" stroke="white" stroke-width="3" stroke-miterlimit="10" stroke-linecap="round" stroke-linejoin="round"/>
<path d="M29.7318 31.1081L18.804 20.3567L21.536 17.667C22.5937 16.6255 22.5937 14.9398 21.536 13.9058L20.0216 12.4149C18.9638 11.3734 17.2516 11.3734 16.2014 12.4149L12.2215 16.3333C9.80915 18.7084 9.80915 22.5669 12.2215 24.942L25.0746 37.5964C27.4869 39.9715 31.406 39.9715 33.8183 37.5964L37.7983 33.678C38.8561 32.6365 38.8561 30.9508 37.7983 29.9168L36.2839 28.4259C35.2261 27.3845 33.5139 27.3845 32.4638 28.4259L29.7318 31.1081Z" stroke="white" stroke-width="3" stroke-miterlimit="10" stroke-linecap="round" stroke-linejoin="round"/>
</svg>

<svg width="49" height="51" fill="none" xmlns="http://www.w3.org/2000/svg">
  <g clip-path="url(#clip0)" stroke="#fff" stroke-width="3" stroke-miterlimit="10" stroke-linecap="round" stroke-linejoin="round">
    <path d="M24.504 1.124C11.597 1.124 1.14 11.418 1.14 24.125c0 7.56 3.706 14.266 9.43 18.461-1.873 3.327-4.59 6.608-8.197 7.298 0 0 8.904-.292 16.704-3.387 1.743.405 3.554.63 5.426.63 12.899 0 23.362-10.295 23.362-23.002-.008-12.707-10.463-23.001-23.362-23.001z"/>
    <path d="M29.732 31.108L18.804 20.357l2.732-2.69a2.626 2.626 0 000-3.761l-1.514-1.491a2.726 2.726 0 00-3.82 0l-3.98 3.918a6.025 6.025 0 000 8.609l12.853 12.654c2.412 2.376 6.331 2.376 8.743 0l3.98-3.918a2.626 2.626 0 000-3.761l-1.514-1.491a2.726 2.726 0 00-3.82 0l-2.732 2.682z"/>
  </g>
  <defs>
    <clipPath id="clip0">
      <path fill="#fff" d="M0 0h49v51H0z"/>
    </clipPath>
  </defs>
</svg>
